public/library/web3auth-text-light.svg

<svg width="319" height="61" viewBox="0 0 319 61" fill="none" xmlns="http://www.w3.org/2000/svg">
<path fill-rule="evenodd" clip-rule="evenodd" d="M33.6444 45.1248C33.5409 45.5105 33.8318 45.8896 34.2314 45.8896H37.7307C38.1303 45.8896 38.4213 45.5105 38.3178 45.1248L36.5681 38.5943C36.4072 37.994 35.5549 37.994 35.394 38.5943L33.6444 45.1248Z" fill="#0364FF"/>
<path fill-rule="evenodd" clip-rule="evenodd" d="M30.1597 49.3043C29.8917 50.3046 28.9854 51 27.95 51H23.2132C21.709 51 20.6141 49.5732 21.0034 48.1203L30.7207 11.8548C31.0138 10.7609 32.0052 10.0002 33.1376 10.0002H38.775C39.9075 10.0002 40.8986 10.7609 41.192 11.8548L50.9091 48.1203C51.2985 49.5732 50.2038 51 48.6995 51H43.9627C42.9272 51 42.0208 50.3046 41.7528 49.3043L37.0266 31.6657C36.7332 30.5707 35.1794 30.5707 34.8861 31.6657L30.1597 49.3043Z" fill="#0364FF"/>
<path fill-rule="evenodd" clip-rule="evenodd" d="M53.9862 42.4705C53.6832 43.6008 52.0793 43.6008 51.7763 42.4705L48.2486 29.3046C48.1804 29.05 48.1804 28.782 48.2486 28.5275L52.7445 11.7486C53.021 10.7172 53.9554 10 55.0233 10H59.6122C61.1632 10 62.2923 11.4714 61.8909 12.9698L53.9862 42.4705ZM23.7181 29.2826C23.7863 29.0281 23.7863 28.76 23.7181 28.5055L19.228 11.7486C18.9517 10.7172 18.017 10 16.9493 10H12.3605C10.8093 10 9.6802 11.4714 10.0817 12.9698L17.9805 42.4485C18.2834 43.5788 19.8874 43.5788 20.1902 42.4485L23.7181 29.2826Z" fill="#0364FF"/>
<path fill-rule="evenodd" clip-rule="evenodd" d="M160.566 50.1183C158.594 50.1183 156.788 49.7073 155.145 48.8854C154.219 48.4112 153.413 47.8477 152.73 47.1949C152.297 46.7826 151.422 47.0624 151.422 47.6534V48.5353C151.422 48.9358 151.09 49.2609 150.681 49.2609H147.126C146.717 49.2609 146.385 48.9358 146.385 48.5353V11.6071C146.385 11.2064 146.717 10.8816 147.126 10.8816H150.664C151.074 10.8816 151.406 11.2064 151.406 11.6071V24.6044C151.406 25.1952 152.283 25.4768 152.716 25.0656C153.405 24.4116 154.217 23.8471 155.145 23.3722C156.788 22.5503 158.594 22.1394 160.566 22.1394C164.106 22.1394 167.099 23.4972 169.544 26.213C172.063 28.9644 173.322 32.2697 173.322 36.1289C173.322 40.0236 172.063 43.3292 169.544 46.0447C167.099 48.7604 164.106 50.1183 160.566 50.1183ZM159.744 45.6161C162.153 45.6161 164.179 44.7227 165.821 42.9359C167.464 41.185 168.285 38.9159 168.285 36.1289C168.285 33.3775 167.464 31.1084 165.821 29.3217C164.179 27.5351 162.153 26.6417 159.744 26.6417C157.299 26.6417 155.255 27.5351 153.612 29.3217C152.006 31.1084 151.203 33.3775 151.203 36.1289C151.203 38.9159 152.006 41.2028 153.612 42.9896C155.255 44.7405 157.299 45.6161 159.744 45.6161ZM129.077 50.1183C125.135 50.1183 121.887 48.7961 119.331 46.1518C116.776 43.5078 115.499 40.1667 115.499 36.1289C115.499 32.1267 116.74 28.8036 119.222 26.1593C121.704 23.4794 124.879 22.1394 128.748 22.1394C132.727 22.1394 135.884 23.4079 138.22 25.9449C140.738 28.5991 141.941 32.5909 141.784 36.2216C141.763 36.687 141.362 37.0401 140.886 37.0401H121.55C121.055 37.0401 120.653 37.4415 120.704 37.9242C120.935 40.0918 121.791 41.8696 123.273 43.2576C124.952 44.8298 126.96 45.6161 129.296 45.6161C132.276 45.6161 134.659 44.2624 136.446 41.5554C136.684 41.1932 137.16 41.0462 137.555 41.2351L140.565 42.6724C140.989 42.8749 141.159 43.3832 140.913 43.7777C139.75 45.6453 138.213 47.1333 136.304 48.2422C134.187 49.493 131.778 50.1183 129.077 50.1183ZM121.32 31.9314C121.142 32.4543 121.563 32.9664 122.126 32.9664H135.462C135.975 32.9664 136.385 32.5362 136.281 32.0442C135.982 30.6314 135.26 29.4381 134.114 28.4641C132.763 27.2492 130.939 26.6417 128.639 26.6417C126.741 26.6417 125.099 27.2135 123.711 28.3569C122.612 29.2879 121.815 30.4794 121.32 31.9314ZM113.955 24.0044C114.119 23.5067 113.74 22.997 113.205 22.997H109.729C109.38 22.997 109.072 23.2221 108.974 23.55L103.846 40.5889C103.641 41.2726 102.657 41.2867 102.431 40.6095L96.725 23.5282C96.6193 23.2113 96.3172 22.997 95.9768 22.997H91.9158C91.5759 22.997 91.2744 23.2104 91.1682 23.5264L85.4106 40.6209C85.183 41.2964 84.2012 41.281 83.9957 40.5986L78.8656 23.55C78.7669 23.2221 78.4594 22.997 78.1102 22.997H74.5245C73.9903 22.997 73.6109 23.5067 73.7751 24.0044L81.9176 48.7263C82.0227 49.0448 82.3254 49.2609 82.6671 49.2609H86.6116C86.9535 49.2609 87.2566 49.0448 87.3613 48.726L93.1077 31.2447C93.328 30.5745 94.2959 30.5733 94.5181 31.243L100.313 48.7278C100.418 49.0457 100.721 49.2609 101.062 49.2609H105.063C105.404 49.2609 105.707 49.0448 105.812 48.7263L113.955 24.0044ZM270.014 47.7065C271.474 49.0285 273.299 49.6894 275.489 49.6894C276.938 49.6894 278.238 49.5307 279.387 49.2129C279.779 49.1042 279.978 48.6892 279.843 48.3131L278.768 45.3375C278.623 44.9385 278.163 44.7459 277.751 44.8736C277.639 44.908 277.524 44.9412 277.405 44.9729C277.04 45.0441 276.657 45.08 276.256 45.08C275.38 45.08 274.595 44.7761 273.901 44.1688C273.208 43.5257 272.861 42.3286 272.861 40.5775V28.2249C272.861 27.8242 273.193 27.4993 273.602 27.4993H278.69C279.099 27.4993 279.431 27.1745 279.431 26.7738V23.7225C279.431 23.3218 279.099 22.997 278.69 22.997H273.602C273.193 22.997 272.861 22.6721 272.861 22.2714V11.6071C272.861 11.2064 272.529 10.8816 272.12 10.8816H268.565C268.156 10.8816 267.824 11.2064 267.824 11.6071V22.2714C267.824 22.6721 267.492 22.997 267.083 22.997H263.857C263.447 22.997 263.116 23.3218 263.116 23.7225V26.7738C263.116 27.1745 263.447 27.4993 263.857 27.4993H267.083C267.492 27.4993 267.824 27.8242 267.824 28.2249V42.1856C267.861 44.544 268.591 46.3842 270.014 47.7065ZM198.079 46.9024C200.524 44.7583 201.747 42.0784 201.747 38.8625C201.747 36.8971 201.181 35.1284 200.05 33.5562C199.529 32.8085 198.781 31.8583 196.587 30.654C196.123 30.3996 196.111 29.7218 196.55 29.4277C199.175 27.6663 200.488 24.9993 200.488 21.8714C200.488 18.9055 199.374 16.4936 197.148 14.6355C194.885 12.7059 192.093 11.7411 188.771 11.7411C186.107 11.7411 183.789 12.4379 181.818 13.8315C180.062 15.0732 178.755 16.6555 177.897 18.5782C177.719 18.9766 177.923 19.4317 178.332 19.6012L181.444 20.8917C181.885 21.0745 182.389 20.8548 182.586 20.428C183.813 17.7812 185.874 16.4578 188.771 16.4578C190.742 16.4578 192.33 16.9581 193.534 17.9586C194.739 18.9591 195.341 20.2634 195.341 21.8714C195.341 23.6223 194.702 25.0516 193.425 26.1594C192.148 27.2313 190.505 27.7673 188.498 27.7673H186.484C186.024 27.7673 185.651 28.1328 185.651 28.5836V31.5607C185.651 32.0115 186.024 32.3769 186.484 32.3769H188.881C190.998 32.3769 192.805 33.0024 194.301 34.2528C195.834 35.5036 196.601 37.0401 196.601 38.8625C196.601 40.6849 195.87 42.2393 194.411 43.5257C192.914 44.7761 191.144 45.4015 189.1 45.4015C187.238 45.4015 185.632 44.8654 184.282 43.7937C183.163 42.8508 182.309 41.5714 181.72 39.9551C181.551 39.4939 181.028 39.2428 180.566 39.4312L177.521 40.6734C177.13 40.8328 176.921 41.2542 177.058 41.6459C177.909 44.0816 179.386 46.0839 181.49 47.6528C183.752 49.2965 186.289 50.1183 189.1 50.1183C192.677 50.1183 195.67 49.0463 198.079 46.9024ZM210.685 41.2209C210.685 39.7915 211.36 38.5945 212.711 37.6296C214.098 36.665 215.813 36.1823 217.857 36.1823C220.479 36.1823 222.561 36.7111 224.103 37.769C224.312 37.9121 224.43 38.1505 224.417 38.3998C224.316 40.3073 223.48 41.9803 221.909 43.4185C220.266 44.9548 218.386 45.7232 216.269 45.7232C214.773 45.7232 213.459 45.2943 212.327 44.4369C211.232 43.5791 210.685 42.5073 210.685 41.2209ZM226.015 25.0873C223.861 23.122 220.923 22.1394 217.2 22.1394C212.711 22.1394 209.252 23.6508 206.822 26.6737C206.561 26.9992 206.659 27.4696 207.017 27.6903L210.194 29.6484C210.53 29.8554 210.97 29.7643 211.218 29.461C212.813 27.51 214.898 26.5345 217.474 26.5345C219.335 26.5345 220.96 27.142 222.347 28.3569C223.742 29.5436 224.237 30.9699 224.378 32.5808C224.427 33.1346 223.809 33.4925 223.285 33.2785C221.552 32.5702 219.469 32.2161 217.036 32.2161C213.532 32.2161 210.721 33.0202 208.604 34.628C206.524 36.2361 205.483 38.398 205.483 41.1135C205.483 43.6865 206.469 45.8304 208.44 47.5456C210.448 49.2609 212.93 50.1183 215.886 50.1183C219.354 50.1183 222.128 48.6177 224.208 45.6161V48.5353C224.208 48.9358 224.54 49.2609 224.949 49.2609H228.504C228.913 49.2609 229.245 48.9358 229.245 48.5353V33.0736C229.245 29.679 228.168 27.0169 226.015 25.0873ZM258.469 48.4897C258.469 48.9156 258.116 49.2609 257.681 49.2609H254.219C253.784 49.2609 253.432 48.9156 253.432 48.4897V47.6289C253.432 47.0733 252.573 46.8071 252.169 47.1967C251.534 47.8085 250.769 48.3536 249.873 48.832C248.303 49.6894 246.661 50.1183 244.945 50.1183C241.661 50.1183 239.124 49.2071 237.335 47.3847C235.583 45.5267 234.707 42.9003 234.707 39.5057V23.7679C234.707 23.3421 235.06 22.997 235.495 22.997H238.957C239.392 22.997 239.744 23.3421 239.744 23.7679V39.184C239.854 43.4719 242.062 45.6161 246.369 45.6161C248.376 45.6161 250.056 44.8298 251.406 43.2576C252.757 41.6495 253.432 39.7378 253.432 37.5224V23.7679C253.432 23.3421 253.784 22.997 254.219 22.997H257.681C258.116 22.997 258.469 23.3421 258.469 23.7679V48.4897ZM284.49 11.6071C284.49 11.2064 284.822 10.8816 285.231 10.8816H288.786C289.195 10.8816 289.527 11.2064 289.527 11.6071V24.6289C289.527 25.1844 290.382 25.4485 290.784 25.0563C291.409 24.4464 292.158 23.9029 293.031 23.4258C294.637 22.5682 296.298 22.1394 298.013 22.1394C301.298 22.1394 303.817 23.0684 305.567 24.9266C307.357 26.7489 308.251 29.3574 308.251 32.7521V48.5353C308.251 48.9358 307.919 49.2609 307.511 49.2609H303.956C303.546 49.2609 303.214 48.9358 303.214 48.5353V33.7168C303.214 29.0001 301.079 26.6417 296.808 26.6417C294.765 26.6417 293.031 27.4814 291.608 29.1609C290.22 30.8046 289.527 32.7342 289.527 34.9497V48.5353C289.527 48.9358 289.195 49.2609 288.786 49.2609H285.231C284.822 49.2609 284.49 48.9358 284.49 48.5353V11.6071Z" fill="black"/>
</svg>

<svg xmlns="http://www.w3.org/2000/svg" width="319" height="61" fill="none" viewBox="0 0 319 61"><path fill="#0364ff" fill-rule="evenodd" d="M33.644 45.125a.608.608 0 0 0 .587.765h3.5c.4 0 .69-.38.587-.765l-1.75-6.53c-.16-.601-1.013-.601-1.174 0z" clip-rule="evenodd"/><path fill="#0364ff" fill-rule="evenodd" d="M30.16 49.304A2.29 2.29 0 0 1 27.95 51h-4.737a2.288 2.288 0 0 1-2.21-2.88l9.718-36.265A2.5 2.5 0 0 1 33.138 10h5.637c1.133 0 2.124.76 2.417 1.855l9.717 36.265A2.287 2.287 0 0 1 48.7 51h-4.736a2.29 2.29 0 0 1-2.21-1.696l-4.726-17.638c-.294-1.095-1.848-1.095-2.14 0zM53.986 42.47c-.303 1.13-1.907 1.13-2.21 0L48.25 29.306a1.5 1.5 0 0 1 0-.777l4.496-16.78A2.36 2.36 0 0 1 55.023 10h4.59a2.36 2.36 0 0 1 2.278 2.97zM23.718 29.284a1.5 1.5 0 0 0 0-.777l-4.49-16.757A2.36 2.36 0 0 0 16.949 10H12.36a2.36 2.36 0 0 0-2.278 2.97l7.898 29.479c.303 1.13 1.907 1.13 2.21 0z" clip-rule="evenodd"/><path fill="#000" fill-rule="evenodd" d="M160.566 50.118q-2.957 0-5.421-1.233a10.2 10.2 0 0 1-2.415-1.69c-.433-.412-1.308-.133-1.308.458v.882c0 .4-.332.726-.741.726h-3.555a.734.734 0 0 1-.741-.726V11.607c0-.4.332-.725.741-.725h3.538c.41 0 .742.324.742.725v12.997c0 .591.877.873 1.31.462a10.4 10.4 0 0 1 2.429-1.694q2.464-1.233 5.421-1.233 5.31 0 8.978 4.074 3.778 4.127 3.778 9.916 0 5.842-3.778 9.916-3.668 4.073-8.978 4.073m-.822-4.502q3.614 0 6.077-2.68 2.464-2.626 2.464-6.807 0-4.126-2.464-6.807t-6.077-2.68q-3.667 0-6.132 2.68-2.409 2.679-2.409 6.807 0 4.18 2.409 6.86 2.465 2.628 6.132 2.627m-30.667 4.502q-5.913 0-9.746-3.966-3.832-3.966-3.832-10.023 0-6.003 3.723-9.97 3.723-4.02 9.526-4.02 5.968 0 9.472 3.806c2.518 2.654 3.721 6.646 3.564 10.277-.021.465-.422.818-.898.818H121.55c-.495 0-.897.401-.846.884q.346 3.252 2.569 5.334 2.519 2.358 6.023 2.358 4.47 0 7.15-4.06a.88.88 0 0 1 1.109-.32l3.01 1.436c.424.203.594.711.348 1.106a13.1 13.1 0 0 1-4.609 4.464q-3.175 1.876-7.227 1.876m-7.757-18.187c-.178.523.243 1.035.806 1.035h13.336c.513 0 .923-.43.819-.922q-.448-2.12-2.167-3.58-2.026-1.822-5.475-1.822-2.846 0-4.928 1.715-1.648 1.396-2.391 3.574m-7.365-7.927c.164-.497-.215-1.007-.75-1.007h-3.476a.785.785 0 0 0-.755.553l-5.128 17.039c-.205.684-1.189.698-1.415.02l-5.706-17.08a.79.79 0 0 0-.748-.532h-4.061a.79.79 0 0 0-.748.53L85.411 40.62c-.228.675-1.21.66-1.415-.022l-5.13-17.049a.785.785 0 0 0-.756-.553h-3.585c-.535 0-.914.51-.75 1.007l8.143 24.722a.79.79 0 0 0 .75.535h3.944a.79.79 0 0 0 .75-.535l5.746-17.481c.22-.67 1.188-.672 1.41-.002l5.795 17.485a.79.79 0 0 0 .749.533h4.001a.79.79 0 0 0 .749-.535zm156.059 23.702q2.19 1.983 5.475 1.983 2.174 0 3.898-.476a.685.685 0 0 0 .456-.9l-1.075-2.976c-.145-.399-.605-.591-1.017-.463a10 10 0 0 1-.346.099 6 6 0 0 1-1.149.107q-1.314 0-2.355-.911-1.04-.965-1.04-3.591V28.225c0-.4.332-.726.741-.726h5.088a.734.734 0 0 0 .741-.725v-3.052c0-.4-.332-.725-.741-.725h-5.088a.734.734 0 0 1-.741-.726V11.607c0-.4-.332-.725-.741-.725h-3.555a.734.734 0 0 0-.741.725v10.664c0 .401-.332.726-.741.726h-3.226a.733.733 0 0 0-.741.726v3.05c0 .401.331.726.741.726h3.226c.409 0 .741.325.741.726v13.96q.055 3.539 2.19 5.521m-71.935-.804q3.668-3.216 3.668-8.04 0-2.948-1.697-5.306c-.521-.747-1.269-1.698-3.463-2.902-.464-.254-.476-.932-.037-1.226 2.625-1.762 3.938-4.429 3.938-7.557q0-4.448-3.34-7.235-3.394-2.895-8.377-2.895-3.996 0-6.953 2.09-2.634 1.864-3.921 4.747c-.178.399.026.854.435 1.023l3.112 1.29c.441.184.945-.036 1.142-.463q1.84-3.97 6.185-3.97 2.957 0 4.763 1.5t1.807 3.913q0 2.626-1.916 4.288-1.916 1.608-4.927 1.608h-2.014a.825.825 0 0 0-.833.817v2.977c0 .45.373.816.833.816h2.397q3.176 0 5.42 1.876 2.3 1.875 2.3 4.61 0 2.733-2.19 4.663-2.245 1.875-5.311 1.875-2.793 0-4.818-1.607-1.679-1.415-2.562-3.839a.885.885 0 0 0-1.154-.524l-3.045 1.242c-.391.16-.6.581-.463.973q1.276 3.654 4.432 6.007 3.393 2.466 7.61 2.465 5.365 0 8.979-3.216m12.606-5.681q0-2.144 2.026-3.591 2.08-1.448 5.146-1.448 3.933 0 6.246 1.587a.72.72 0 0 1 .314.63q-.152 2.862-2.508 5.02-2.464 2.304-5.64 2.304-2.244 0-3.942-1.286-1.642-1.287-1.642-3.216m15.33-16.134q-3.23-2.948-8.815-2.948-6.733 0-10.378 4.535c-.261.325-.163.796.195 1.016l3.177 1.958a.795.795 0 0 0 1.024-.187q2.392-2.926 6.256-2.926 2.792 0 4.873 1.822c1.395 1.187 1.89 2.613 2.031 4.224.049.554-.569.911-1.093.697q-2.6-1.062-6.249-1.062-5.256 0-8.432 2.412-3.12 2.412-3.121 6.486 0 3.859 2.957 6.432 3.012 2.572 7.446 2.572 5.202 0 8.322-4.502v2.92c0 .4.332.725.741.725h3.555a.734.734 0 0 0 .741-.726V33.074q0-5.092-3.23-7.987m32.454 23.403a.78.78 0 0 1-.788.77h-3.462a.78.78 0 0 1-.787-.77v-.861c0-.556-.859-.822-1.263-.432q-.952.917-2.296 1.635-2.355 1.286-4.928 1.286-4.926 0-7.61-2.733-2.628-2.787-2.628-7.88V23.769a.78.78 0 0 1 .788-.771h3.462c.435 0 .787.345.787.77v15.417q.165 6.432 6.625 6.432 3.011 0 5.037-2.358 2.026-2.412 2.026-5.736V23.768c0-.426.352-.771.787-.771h3.462a.78.78 0 0 1 .788.77zm26.021-36.883c0-.4.332-.725.741-.725h3.555c.409 0 .741.324.741.725V24.63c0 .555.855.82 1.257.427a10.2 10.2 0 0 1 2.247-1.63q2.41-1.287 4.982-1.287 4.928 0 7.554 2.788 2.685 2.733 2.684 7.825v15.783c0 .4-.332.726-.74.726h-3.555a.734.734 0 0 1-.742-.726V33.717q0-7.075-6.406-7.075-3.065 0-5.2 2.519-2.082 2.465-2.081 5.789v13.585c0 .4-.332.726-.741.726h-3.555a.734.734 0 0 1-.741-.726z" clip-rule="evenodd"/></svg>
